X:1
T: Down the Hill
C:
R:Jig
Q:180
K:Gm
M:6/8
L:1/16
|:GF|D2G2G2 G4A2|BAGABG AGFGAF|GFDCDE F4G2|A2B2G2 F2D2C2|
D2G2G2 G4B2|AGFGAB c2A2c2|def2d2 c2A2d2|G6 G4:|
|:Bc|d2g2g2 g4a2|bagabg a2f2d2|c2f2f2 f4g2|agfgaf g2f2d2|
d2g2g2 g4a2|bagabg agfgaf|g2f2d2 c2A2d2|G6 G4:|
|:=Bd|g2d2=B2 G3BdB|G3=BdB c2_B2A2|f2c2G2 F3AcA|FGA2B2 c2B2A2|
BAGABG cBABcA|d2g2^f2 g2a2b2|g2f2d2 c2A2d2|G6 G4:|
